layouts/icon-pack/spell_poison.svg

<?xml version="1.0" encoding="UTF-8"?>
<svg width="1200pt" height="1200pt" version="1.1" viewBox="0 0 1200 1200" xmlns="http://www.w3.org/2000/svg">
 <g fill="#fff">
  <path d="m161.02 283.41c24.492 4.0312 48.539-2.1094 61.852-24.867 9.375-15.938 13.641-40.523 12.82-58.594-1.9688-43.266-34.945-77.109-79.148-75.562-20.695 0.72656-43.125 6.6797-58.594 21.094-0.35156 0.32813-0.67969 0.67969-1.0078 1.0078-27.914 19.242-39.398 57.422-20.273 88.664 16.875 27.633 53.672 43.195 84.352 48.258z"/>
  <path d="m733.95 111.66c1.0586 3.8633 3.1016 7.3828 5.9297 10.219 0.51562 0.86328 1.0859 1.6953 1.7109 2.4844 2.6289 4.0391 6.0781 7.4805 10.125 10.102 4.418 4.0664 9.8242 6.9102 15.68 8.25 8.0234 2.2031 16.492 2.2031 24.516 0l0.46875-0.11719 11.016-4.6875 0.84375-0.46875c7.2656-3.9141 9.5156-7.0312 13.922-12.844 2.9922-3.2812 5.2461-7.1641 6.6094-11.391 1.0195-2.0664 1.8789-4.2031 2.5781-6.3984 0.53906-4.0781 1.0781-8.1328 1.6406-12.188v-0.46875-0.96094l-1.6406-12.117v-0.46875l-0.16406-0.46875-4.6875-10.898-0.60938-1.0312c-2.2891-3.3398-4.7617-6.5469-7.4062-9.6094-1.6211-1.4609-3.3359-2.8164-5.1328-4.0547-6.1406-4.6875-7.8281-6.2578-16.688-8.8359l-0.91406-0.28125h-0.46875l-12.047-1.6172h-0.9375l-12.023 1.6172h-0.46875l-10.781 4.5469c-5.1641 2.7539-9.5273 6.7891-12.68 11.719-2.1289 2.1289-3.8125 4.6641-4.9453 7.4531l-1.125 1.4531-4.6875 11.016c-1.918 5.9492-2.1992 12.305-0.82031 18.398-0.003906 4.0977 1.0977 8.125 3.1875 11.648z"/>
  <path d="m1044.4 460.22c25.289 6.5156 52.922 2.9531 71.461-16.734 19.406-20.602 23.156-51.281 18.516-78.094-9.8438-57.188-73.641-107.27-130.59-76.477-17.727 9.3594-30.219 26.289-33.938 45.984-0.78516 2.1758-1.457 4.3906-2.0156 6.6328-12.539 51.75 26.883 105.91 76.57 118.69z"/>
  <path d="m64.57 1011.3c-0.9375 19.453 8.4609 38.062 23.695 50.508 3.7539 4.7734 8.1016 9.0508 12.938 12.727 22.504 16.676 51.855 20.992 78.211 11.508 12.902-4.4688 24.691-11.664 34.57-21.094 11.109-10.059 19.555-22.707 24.586-36.82 5.0312-13.902 6.1875-28.914 3.3477-43.426-2.8438-14.508-9.5703-27.977-19.473-38.957-31.289-41.32-93.75-45.305-130.62-7.5938-16.852 17.203-28.992 42.188-27.938 66.445 0.10156 2.2461 0.32812 4.4844 0.67969 6.7031z"/>
  <path d="m582.91 759.7c10.531 1.4297 21.211 1.3906 31.734-0.11719 5.9062-0.92969 11.086-4.457 14.113-9.6133 3.0273-5.1602 3.5859-11.398 1.5195-17.012-4.0039-10.898-10.457-20.73-18.867-28.734-3.8906-3.8203-9.1719-5.8906-14.625-5.7383-5.4492 0.15625-10.605 2.5234-14.273 6.5586-7.418 8.3125-12.867 18.188-15.938 28.898-1.7344 5.6094-0.92188 11.691 2.2227 16.648s8.3008 8.2852 14.113 9.1094z"/>
  <path d="m476.02 704.25 0.86719 0.51562c9.4766 5.2734 20.668 6.543 31.086 3.5352 10.418-3.0117 19.207-10.055 24.414-19.566 14.555-25.613 21.086-55.008 18.75-84.375-1.0898-13.438-8.7773-25.461-20.52-32.086-11.742-6.625-26.008-6.9961-38.074-0.98438-33.516 16.828-49.383 41.227-56.25 55.781-3.8477 8.082-4.8438 17.227-2.8359 25.945 8.4141 36.609 42.562 51.234 42.562 51.234z"/>
  <path d="m604.69 628.41c16.113 15.707 31.215 32.422 45.211 50.039 5.3438 6.9375 13.371 11.293 22.098 12.004 8.7266 0.71094 17.352-2.2969 23.746-8.2773 11.227-10.828 22.406-28.875 27.633-58.969 0 0 6.5625-45.141-15.352-81.656-6.5859-10.773-17.121-18.551-29.355-21.672-12.238-3.1211-25.211-1.3398-36.152 4.9609-18.867 10.512-34.668 25.766-45.844 44.25-5.4453 9.3711-7.6133 20.293-6.1641 31.035 1.4531 10.742 6.4414 20.695 14.18 28.285z"/>
  <path d="m174.98 856.99c16.465 7.582 33.5 13.852 50.953 18.75 48.68 13.832 87.105 51.277 102.19 99.586 22.242 71.859 77.625 166.15 215.44 180.47 0 0 142.45 10.406 230.32-65.461 21.91-19.176 50.676-28.617 79.688-26.156 20.648 2.1094 41.504 0.98047 61.805-3.3516 23.934-5.6094 45.484-18.629 61.59-37.199 16.102-18.57 25.938-41.746 28.105-66.23 2.3438-25.266 0.46875-56.508-14.18-87.07-5.7227-12.164-7.8477-25.707-6.1211-39.039 1.7227-13.328 7.2227-25.887 15.848-36.195 18.891-22.805 38.766-57.703 44.133-106.9v-1.1016c7.5938-73.031-50.297-137.23-123.66-137.46-13.652 0.003907-27.285 1.1133-40.758 3.3281-6.4961 1.0391-13.121-0.82813-18.121-5.1055-5-4.2773-7.8672-10.535-7.8477-17.113v-0.44531c-0.074219-6.8047 3.1367-13.227 8.625-17.25 1.1953-0.84375 2.3438-1.7109 3.4688-2.5781 22.512-18 34.047-46.402 30.469-75-8.1094-70.969-43.008-178.12-169.83-254.02-104.39-62.414-235.24-64.711-338.88-0.98438-50.414 31.031-99.07 80.133-133.12 157.38-9.8477 22.125-12.117 46.887-6.4492 70.434 5.668 23.543 18.949 44.562 37.785 59.785l1.9688 1.5469c6.8008 5.0977 10.371 13.43 9.375 21.867-0.80859 6.2617-4.1133 11.934-9.1602 15.727-5.0469 3.793-11.41 5.3906-17.652 4.4297l-2.5078-0.375c-44.371-6.4727-89.539 4.2578-126.26 29.996-36.719 25.734-62.215 64.531-71.27 108.45-0.16406 0.89062-0.35156 1.7812-0.51562 2.6719-7.793 40.879-1.7422 83.188 17.195 120.24s49.688 66.742 87.383 84.367zm712.12-157.71c9.1797 0 17.984 3.6484 24.477 10.141 6.4922 6.4922 10.141 15.297 10.141 24.477 0 9.1797-3.6484 17.984-10.141 24.477-6.4922 6.4922-15.297 10.141-24.477 10.141s-17.984-3.6484-24.477-10.141c-6.4922-6.4922-10.141-15.297-10.141-24.477-0.007813-9.1836 3.6406-17.992 10.133-24.484 6.4922-6.4922 15.301-10.141 24.484-10.133zm-458.2-408.8c9.6172 0 18.84 3.8203 25.637 10.621 6.8008 6.7969 10.621 16.02 10.621 25.637 0 9.6172-3.8203 18.84-10.621 25.637-6.7969 6.8008-16.02 10.621-25.637 10.621s-18.84-3.8203-25.637-10.621c-6.8008-6.7969-10.621-16.02-10.621-25.637 0-9.6172 3.8203-18.84 10.621-25.637 6.7969-6.8008 16.02-10.621 25.637-10.621zm-52.758 268.55c26.18-55.898 65.625-88.781 102.96-108.09 30.18-15.566 63.484-24.121 97.434-25.023 33.945-0.89844 67.656 5.875 98.621 19.82 72.891 32.812 99.164 94.641 107.58 146.46 5.6172 36.016 3.75 72.805-5.4844 108.07-14.273 55.898-15 100.17-13.641 125.02 0.28125 5.7695-1.8164 11.406-5.8008 15.586-3.9883 4.1836-9.5156 6.5469-15.293 6.5391h-1.1016c-4.043-0.050781-7.9688-1.3594-11.234-3.7383-3.2656-2.3828-5.7109-5.7188-7-9.5508-0.28125-0.82031-0.58594-1.5703-0.91406-2.3438-8.25-19.102-34.828-21.094-46.5-3.8672-15.586 22.992-17.977 62.602-17.789 86.93 0.042969 5.6094-2.1641 11-6.1289 14.965-3.9648 3.9648-9.3555 6.1719-14.965 6.1289h-9.6328c-5.707 0.003906-11.168-2.3203-15.121-6.4336-3.957-4.1133-6.0625-9.6602-5.832-15.363 2.3438-65.109-26.18-78.773-38.32-81.656-2.457-0.61719-4.9961-0.83594-7.5234-0.65625-17.859 1.6641-25.781 23.438-29.18 39.117-1.0312 4.6602-3.625 8.8281-7.3516 11.812-3.7266 2.9844-8.3594 4.6055-13.133 4.5938h-1.8516c-5.2891 0.003906-10.383-1.9961-14.258-5.5977-3.8711-3.6016-6.2383-8.5352-6.625-13.809-4.6875-62.227-69.164-116.2-69.164-116.2-89.859-65.648-42.75-192.7-42.75-192.7z"/>
 </g>
</svg>

<?xml version="1.0" encoding="UTF-8" standalone="no"?>
<!DOCTYPE svg PUBLIC "-//W3C//DTD SVG 1.1//EN" "http://www.w3.org/Graphics/SVG/1.1/DTD/svg11.dtd">
<svg width="100%" height="100%" viewBox="0 0 494 512" version="1.1" xmlns="http://www.w3.org/2000/svg" xmlns:xlink="http://www.w3.org/1999/xlink" xml:space="preserve" xmlns:serif="http://www.serif.com/" style="fill-rule:evenodd;clip-rule:evenodd;stroke-linejoin:round;stroke-miterlimit:2;">
    <g transform="matrix(1,0,0,1,-63.823,-43.8087)">
        <g transform="matrix(0.460237,0,0,0.460237,34.4493,23.6463)">
            <path d="M161.02,283.41C185.512,287.441 209.559,281.301 222.872,258.543C232.247,242.605 236.513,218.02 235.692,199.949C233.723,156.683 200.747,122.84 156.544,124.387C135.849,125.114 113.419,131.067 97.95,145.481C97.598,145.809 97.27,146.161 96.942,146.489C69.028,165.731 57.544,203.911 76.669,235.153C93.544,262.786 130.341,278.348 161.021,283.411L161.02,283.41Z" style="fill:white;fill-rule:nonzero;"/>
            <path d="M733.95,111.66C735.009,115.523 737.052,119.043 739.88,121.879C740.395,122.742 740.966,123.574 741.591,124.363C744.22,128.402 747.669,131.844 751.716,134.465C756.134,138.532 761.54,141.376 767.396,142.715C775.419,144.919 783.888,144.919 791.912,142.715L792.38,142.598L803.396,137.911L804.24,137.442C811.506,133.528 813.756,130.411 818.162,124.598C821.154,121.317 823.408,117.434 824.772,113.207C825.791,111.141 826.65,109.004 827.35,106.809C827.889,102.73 828.428,98.676 828.99,94.621L828.99,93.191L827.35,81.074L827.35,80.605L827.186,80.136L822.498,69.238L821.889,68.207C819.6,64.867 817.127,61.66 814.482,58.598C812.861,57.137 811.147,55.781 809.35,54.543C803.209,49.856 801.522,48.285 792.662,45.707L791.748,45.426L791.279,45.426L779.232,43.809L778.294,43.809L766.271,45.426L765.803,45.426L755.022,49.973C749.858,52.727 745.494,56.762 742.342,61.692C740.213,63.821 738.529,66.356 737.396,69.145L736.271,70.598L731.584,81.614C729.666,87.563 729.385,93.919 730.763,100.012C730.76,104.11 731.861,108.137 733.951,111.66L733.95,111.66Z" style="fill:white;fill-rule:nonzero;"/>
            <path d="M1044.4,460.22C1069.69,466.736 1097.32,463.173 1115.86,443.486C1135.27,422.884 1139.02,392.205 1134.38,365.392C1124.53,308.204 1060.74,258.122 1003.79,288.915C986.06,298.274 973.568,315.204 969.849,334.899C969.064,337.075 968.392,339.29 967.833,341.532C955.294,393.282 994.716,447.442 1044.4,460.222L1044.4,460.22Z" style="fill:white;fill-rule:nonzero;"/>
            <path d="M64.57,1011.3C63.632,1030.75 73.031,1049.36 88.265,1061.81C92.019,1066.58 96.367,1070.86 101.203,1074.54C123.707,1091.21 153.058,1095.53 179.414,1086.04C192.316,1081.57 204.105,1074.38 213.984,1064.95C225.093,1054.89 233.539,1042.24 238.57,1028.13C243.601,1014.23 244.758,999.215 241.918,984.703C239.074,970.195 232.347,956.726 222.445,945.746C191.156,904.426 128.695,900.441 91.825,938.152C74.973,955.355 62.833,980.34 63.887,1004.6C63.988,1006.84 64.215,1009.08 64.566,1011.3L64.57,1011.3Z" style="fill:white;fill-rule:nonzero;"/>
            <path d="M582.91,759.7C593.441,761.13 604.121,761.091 614.644,759.583C620.55,758.653 625.73,755.126 628.757,749.97C631.784,744.809 632.343,738.572 630.277,732.958C626.273,722.06 619.82,712.228 611.41,704.224C607.519,700.403 602.238,698.333 596.785,698.485C591.335,698.641 586.18,701.009 582.512,705.044C575.094,713.356 569.645,723.232 566.574,733.942C564.839,739.551 565.652,745.633 568.796,750.59C571.941,755.547 577.097,758.875 582.909,759.699L582.91,759.7Z" style="fill:white;fill-rule:nonzero;"/>
            <path d="M476.02,704.25L476.887,704.766C486.364,710.039 497.555,711.309 507.973,708.301C518.391,705.289 527.18,698.246 532.387,688.735C546.942,663.122 553.473,633.727 551.137,604.36C550.047,590.922 542.36,578.899 530.617,572.274C518.875,565.649 504.609,565.278 492.543,571.289C459.027,588.117 443.16,612.516 436.293,627.07C432.445,635.152 431.449,644.297 433.457,653.015C441.871,689.624 476.019,704.249 476.019,704.249L476.02,704.25Z" style="fill:white;fill-rule:nonzero;"/>
            <path d="M604.69,628.41C620.803,644.117 635.905,660.832 649.901,678.449C655.245,685.386 663.272,689.742 671.999,690.453C680.726,691.164 689.351,688.156 695.745,682.176C706.972,671.348 718.151,653.301 723.378,623.207C723.378,623.207 729.941,578.066 708.026,541.551C701.44,530.778 690.905,523 678.671,519.879C666.433,516.758 653.46,518.539 642.519,524.84C623.652,535.352 607.851,550.606 596.675,569.09C591.23,578.461 589.062,589.383 590.511,600.125C591.964,610.867 596.952,620.82 604.691,628.41L604.69,628.41Z" style="fill:white;fill-rule:nonzero;"/>
            <path d="M174.98,856.99C191.445,864.572 208.48,870.842 225.933,875.74C274.613,889.572 313.038,927.017 328.123,975.326C350.365,1047.18 405.748,1141.48 543.563,1155.8C543.563,1155.8 686.013,1166.2 773.883,1090.34C795.793,1071.16 824.559,1061.72 853.571,1064.18C874.219,1066.29 895.075,1065.16 915.376,1060.83C939.31,1055.22 960.86,1042.2 976.966,1023.63C993.068,1005.06 1002.9,981.882 1005.07,957.398C1007.42,932.132 1005.54,900.89 990.891,870.328C985.168,858.164 983.043,844.621 984.77,831.289C986.493,817.961 991.993,805.402 1000.62,795.094C1019.51,772.289 1039.38,737.391 1044.75,688.194L1044.75,687.093C1052.35,614.062 994.454,549.863 921.091,549.633C907.439,549.637 893.806,550.746 880.333,552.961C873.837,554 867.212,552.133 862.212,547.855C857.212,543.578 854.345,537.32 854.364,530.742L854.364,530.297C854.29,523.492 857.501,517.07 862.989,513.047C864.184,512.203 865.333,511.336 866.458,510.469C888.97,492.469 900.505,464.067 896.927,435.469C888.818,364.5 853.919,257.349 727.097,181.449C622.707,119.035 491.857,116.738 388.217,180.465C337.803,211.496 289.147,260.598 255.097,337.845C245.249,359.97 242.98,384.732 248.648,408.279C254.316,431.822 267.597,452.841 286.433,468.064L288.402,469.611C295.202,474.708 298.773,483.041 297.777,491.478C296.968,497.739 293.663,503.412 288.616,507.205C283.57,510.998 277.206,512.595 270.964,511.634L268.457,511.259C224.086,504.787 178.918,515.517 142.197,541.255C105.478,566.989 79.982,605.786 70.927,649.705C70.763,650.596 70.575,651.486 70.411,652.377C62.618,693.256 68.669,735.565 87.606,772.617C106.543,809.669 137.294,839.359 174.989,856.984L174.98,856.99ZM887.1,699.28C896.28,699.28 905.084,702.928 911.577,709.421C918.069,715.913 921.718,724.718 921.718,733.898C921.718,743.078 918.07,751.882 911.577,758.375C905.085,764.867 896.28,768.516 887.1,768.516C877.92,768.516 869.116,764.868 862.623,758.375C856.131,751.883 852.482,743.078 852.482,733.898C852.474,724.714 856.123,715.906 862.615,709.414C869.107,702.922 877.916,699.273 887.099,699.281L887.1,699.28ZM428.9,290.48C438.517,290.48 447.74,294.3 454.537,301.101C461.338,307.898 465.158,317.121 465.158,326.738C465.158,336.355 461.338,345.578 454.537,352.375C447.74,359.176 438.517,362.996 428.9,362.996C419.283,362.996 410.06,359.176 403.263,352.375C396.462,345.578 392.642,336.355 392.642,326.738C392.642,317.121 396.462,307.898 403.263,301.101C410.06,294.3 419.283,290.48 428.9,290.48ZM376.142,559.03C402.322,503.132 441.767,470.249 479.102,450.94C509.282,435.374 542.586,426.819 576.536,425.917C610.481,425.019 644.192,431.792 675.157,445.737C748.048,478.549 774.321,540.378 782.737,592.197C788.354,628.213 786.487,665.002 777.253,700.267C762.98,756.165 762.253,800.437 763.612,825.287C763.893,831.056 761.795,836.693 757.811,840.873C753.823,845.057 748.295,847.42 742.518,847.412L741.416,847.412C737.373,847.361 733.447,846.053 730.182,843.674C726.917,841.291 724.471,837.955 723.182,834.123C722.901,833.303 722.596,832.553 722.268,831.779C714.018,812.677 687.44,810.685 675.768,827.912C660.182,850.904 657.791,890.514 657.979,914.842C658.022,920.451 655.815,925.842 651.85,929.807C647.885,933.772 642.495,935.979 636.885,935.936L627.252,935.936C621.545,935.94 616.084,933.616 612.131,929.502C608.174,925.389 606.069,919.842 606.299,914.139C608.643,849.03 580.119,835.366 567.979,832.483C565.522,831.866 562.983,831.647 560.456,831.827C542.597,833.491 534.675,855.265 531.276,870.944C530.245,875.604 527.651,879.772 523.924,882.756C520.198,885.74 515.565,887.362 510.791,887.35L508.94,887.35C503.651,887.354 498.557,885.354 494.682,881.752C490.811,878.151 488.444,873.217 488.057,867.943C483.369,805.716 418.893,751.743 418.893,751.743C329.034,686.095 376.143,559.043 376.143,559.043L376.142,559.03Z" style="fill:white;fill-rule:nonzero;"/>
        </g>
    </g>
</svg>
